src/assets/selectIconsSpells/speciale_5.svg

<svg xmlns="http://www.w3.org/2000/svg" viewBox="0 0 512 512"><path d="M0 0h512v512H0z"/><path fill="#fff" d="M229.3 23.6c-1.3 0-2.7.1-4 .11-21.2 1.03-40.7 8.51-49.7 18.54-11.2 12.51-16.6 46.14-3.2 82.45 12.4 33.6 39.5 69.4 88.1 94.3 13.5-37.3 17.4-100.3 16.6-148.56l18-.28c.7 46.64-1.9 105.94-15.2 147.94 34.2-16.5 64.8-32.9 86.4-54.7 24.7-24.9 38.9-56.5 35.9-107.03-.2-3.85-3-8.72-9.4-13.57-6.3-4.85-15.9-9.24-27-11.93-22.1-5.37-50.1-3.97-72.2 8.76l-5.2 2.97-4.7-3.59c-12.9-9.73-31.7-14.93-50.4-15.39h-4zM89.18 161.3c-2.71 0-5.42.1-8.14.3-20.35 1.6-44.06 16.8-52.99 39.1s-5.33 52.4 32.32 88.2l3.13 3-.36 4.3c-3.69 43.4.54 71.8 8.13 88.8 7.59 17.1 17.53 23.3 29.03 25.3 11.4 1.9 25-1.3 36.8-6.9 11.8-5.5 21.8-13.6 25.2-18v-.1c35-44.4 51.2-90.1 70-136.8-80.2 46.4-112.6 41.3-142.88 45.7l-2.58-17.8c35.26-5.1 60.76 2.2 145.56-48.9-44.9-31.9-91.1-65.2-140.52-66.2zM394 218.6c-3.8.1-7.7.4-11.7.8-27.2 2.8-56.1 12.8-84.2 19.5 36 45.6 60.9 84 103.5 112.4l-10 15c-44.6-29.8-70.5-68.5-104.2-111.6-6.4 32.2-11.2 64.7-9.3 93.9 2.2 35 13.4 64.8 42.4 86.7 16.8 12.7 30.4 18 41 18.8 10.6.8 18.8-2.4 26.7-8.9 15.6-13 27.6-40.5 36.4-67.7l1.2-3.6 3.5-1.7c40.1-19.4 55-41.5 58.1-62.1 3.1-20.7-6.1-41.6-19.4-57.6-21.9-26.4-45.5-34.1-71.5-33.9zm-138.4 17.6c-40.8 91.8-22.5 168.6-3 252.2l17.6-4c-19.5-83.8-36.6-154.2 1.8-240.8z"/></svg>

<?xml version="1.0" encoding="UTF-8" standalone="no"?>
<!DOCTYPE svg PUBLIC "-//W3C//DTD SVG 1.1//EN" "http://www.w3.org/Graphics/SVG/1.1/DTD/svg11.dtd">
<svg width="100%" height="100%" viewBox="0 0 512 512" version="1.1" xmlns="http://www.w3.org/2000/svg" xmlns:xlink="http://www.w3.org/1999/xlink" xml:space="preserve" xmlns:serif="http://www.serif.com/" style="fill-rule:evenodd;clip-rule:evenodd;stroke-linejoin:round;stroke-miterlimit:2;">
    <rect x="0" y="0" width="512" height="512" style="fill-rule:nonzero;"/>
    <path d="M229.3,23.6C228,23.6 226.6,23.7 225.3,23.71C204.1,24.74 184.6,32.22 175.6,42.25C164.4,54.76 159,88.39 172.4,124.7C184.8,158.3 211.9,194.1 260.5,219C274,181.7 277.9,118.7 277.1,70.44L295.1,70.16C295.8,116.8 293.2,176.1 279.9,218.1C314.1,201.6 344.7,185.2 366.3,163.4C391,138.5 405.2,106.9 402.2,56.37C402,52.52 399.2,47.65 392.8,42.8C386.5,37.95 376.9,33.56 365.8,30.87C343.7,25.5 315.7,26.9 293.6,39.63L288.4,42.6L283.7,39.01C270.8,29.28 252,24.08 233.3,23.62L229.3,23.62L229.3,23.6ZM89.18,161.3C86.47,161.3 83.76,161.4 81.04,161.6C60.69,163.2 36.98,178.4 28.05,200.7C19.12,223 22.72,253.1 60.37,288.9L63.5,291.9L63.14,296.2C59.45,339.6 63.68,368 71.27,385C78.86,402.1 88.8,408.3 100.3,410.3C111.7,412.2 125.3,409 137.1,403.4C148.9,397.9 158.9,389.8 162.3,385.4L162.3,385.3C197.3,340.9 213.5,295.2 232.3,248.5C152.1,294.9 119.7,289.8 89.42,294.2L86.84,276.4C122.1,271.3 147.6,278.6 232.4,227.5C187.5,195.6 141.3,162.3 91.88,161.3L89.18,161.3ZM394,218.6C390.2,218.7 386.3,219 382.3,219.4C355.1,222.2 326.2,232.2 298.1,238.9C334.1,284.5 359,322.9 401.6,351.3L391.6,366.3C347,336.5 321.1,297.8 287.4,254.7C281,286.9 276.2,319.4 278.1,348.6C280.3,383.6 291.5,413.4 320.5,435.3C337.3,448 350.9,453.3 361.5,454.1C372.1,454.9 380.3,451.7 388.2,445.2C403.8,432.2 415.8,404.7 424.6,377.5L425.8,373.9L429.3,372.2C469.4,352.8 484.3,330.7 487.4,310.1C490.5,289.4 481.3,268.5 468,252.5C446.1,226.1 422.5,218.4 396.5,218.6L394,218.6ZM255.6,236.2C214.8,328 233.1,404.8 252.6,488.4L270.2,484.4C250.7,400.6 233.6,330.2 272,243.6L255.6,236.2Z" style="fill:rgb(93,255,0);fill-rule:nonzero;"/>
</svg>
